X:15539
T:Skogr\aa{}ns polska
R:Polska
O:Sweden
M:3/4
A:Dalarna
K:Dm
A|\
a>^g a<b a>=g|f>e f<g f>e|\
(3d^cd (3efe (3def|(3gef (3de^c A>A|\
a>^g a<b a>=g|f>e f<a g>=b|\
a>f e<d (3^cBc|d2 d3 ::\
A|\
d>^c d<f e>g|f>e f<g f>e|\
(3d^cd (3efe (3def|(3gef (3de^c A>A|\
d>^c d<f e>g|f>e f<a g>=b|\
a>f e<d (3^cBc|d2 d3 :|


